X: 36604
T: Shamrock, The
R: jig
M: 6/8
K: Gmajor
dBB BAB|GAG Gge|dBB BAG|Bee e2 f|
dBB BAB|GAG GBd|gfe fdB|Bee e2:|
gag fgf|efe dBd|gag fed|Bee e2 f|
gbg faf|e/f/ge dBd|gfe fdB|Bee e2:|

